pic/icon-light-mode.svg

<svg xmlns="http://www.w3.org/2000/svg" width="30" height="30" viewBox="0 0 30 30">
  <path fill-rule="evenodd" d="M25,0 C27.7614237,0 30,2.23857625 30,5 L30,25 C30,27.7614237 27.7614237,30 25,30 L5,30 C2.23857625,30 0,27.7614237 0,25 L0,5 C0,2.23857625 2.23857625,0 5,0 L25,0 Z M15,22 C14.4871642,22 14.0644928,22.3860402 14.0067277,22.8833789 L14,23 L14,24 C14,24.5522847 14.4477153,25 15,25 C15.5128358,25 15.9355072,24.6139598 15.9932723,24.1166211 L16,24 L16,23 C16,22.4477153 15.5522847,22 15,22 Z M21.363961,19.9497475 C20.9734367,19.5592232 20.3402718,19.5592232 19.9497475,19.9497475 C19.5892635,20.3102314 19.561534,20.8774625 19.8665589,21.2697537 L19.9497475,21.363961 L20.6568542,22.0710678 C21.0473785,22.4615921 21.6805435,22.4615921 22.0710678,22.0710678 C22.4315518,21.7105839 22.4592813,21.1433528 22.1542564,20.7510616 L22.0710678,20.6568542 L21.363961,19.9497475 Z M10.0502525,19.9497475 C9.68976857,19.5892635 9.12253751,19.561534 8.73024631,19.8665589 L8.63603897,19.9497475 L7.92893219,20.6568542 C7.5384079,21.0473785 7.5384079,21.6805435 7.92893219,22.0710678 C8.28941615,22.4315518 8.85664721,22.4592813 9.24893841,22.1542564 L9.34314575,22.0710678 L10.0502525,21.363961 C10.4407768,20.9734367 10.4407768,20.3402718 10.0502525,19.9497475 Z M15,9 C11.68625,9 9,11.68625 9,15 C9,18.31375 11.68625,21 15,21 C18.31375,21 21,18.31375 21,15 C21,11.68625 18.31375,9 15,9 Z M24,14 L23,14 C22.4477153,14 22,14.4477153 22,15 C22,15.5128358 22.3860402,15.9355072 22.8833789,15.9932723 L23,16 L24,16 C24.5522847,16 25,15.5522847 25,15 C25,14.4871642 24.6139598,14.0644928 24.1166211,14.0067277 L24,14 Z M7,14 L6,14 C5.44771525,14 5,14.4477153 5,15 C5,15.5128358 5.38604019,15.9355072 5.88337887,15.9932723 L6,16 L7,16 C7.55228475,16 8,15.5522847 8,15 C8,14.4871642 7.61395981,14.0644928 7.11662113,14.0067277 L7,14 Z M22.0710678,7.92893219 C21.7105839,7.56844823 21.1433528,7.54071869 20.7510616,7.84574358 L20.6568542,7.92893219 L19.9497475,8.63603897 C19.5592232,9.02656326 19.5592232,9.65972824 19.9497475,10.0502525 C20.3102314,10.4107365 20.8774625,10.438466 21.2697537,10.1334411 L21.363961,10.0502525 L22.0710678,9.34314575 C22.4615921,8.95262146 22.4615921,8.31945648 22.0710678,7.92893219 Z M9.34314575,7.92893219 C8.95262146,7.5384079 8.31945648,7.5384079 7.92893219,7.92893219 C7.56844823,8.28941615 7.54071869,8.85664721 7.84574358,9.24893841 L7.92893219,9.34314575 L8.63603897,10.0502525 C9.02656326,10.4407768 9.65972824,10.4407768 10.0502525,10.0502525 C10.4107365,9.68976857 10.438466,9.12253751 10.1334411,8.73024631 L10.0502525,8.63603897 L9.34314575,7.92893219 Z M15,5 C14.4871642,5 14.0644928,5.38604019 14.0067277,5.88337887 L14,6 L14,7 C14,7.55228475 14.4477153,8 15,8 C15.5128358,8 15.9355072,7.61395981 15.9932723,7.11662113 L16,7 L16,6 C16,5.44771525 15.5522847,5 15,5 Z"/>
</svg>

<svg xmlns="http://www.w3.org/2000/svg" width="30" height="30" viewBox="0 0 30 30"><path fill-rule="evenodd" d="M25 0a5 5 0 0 1 5 5v20a5 5 0 0 1-5 5H5a5 5 0 0 1-5-5V5a5 5 0 0 1 5-5h20ZM15 22a1 1 0 0 0-.993.883L14 23v1a1 1 0 0 0 1.993.117L16 24v-1a1 1 0 0 0-1-1Zm6.364-2.05a1 1 0 0 0-1.497 1.32l.083.094.707.707a1 1 0 0 0 1.497-1.32l-.083-.094-.707-.707Zm-11.314 0a1 1 0 0 0-1.32-.083l-.094.083-.707.707a1 1 0 0 0 1.32 1.497l.094-.083.707-.707a1 1 0 0 0 0-1.414ZM15 9a6 6 0 1 0 0 12 6 6 0 0 0 0-12Zm9 5h-1a1 1 0 0 0-.117 1.993L23 16h1a1 1 0 0 0 .117-1.993L24 14ZM7 14H6a1 1 0 0 0-.117 1.993L6 16h1a1 1 0 0 0 .117-1.993L7 14Zm15.071-6.071a1 1 0 0 0-1.32-.083l-.094.083-.707.707a1 1 0 0 0 1.32 1.497l.094-.083.707-.707a1 1 0 0 0 0-1.414Zm-12.728 0a1 1 0 0 0-1.497 1.32l.083.094.707.707a1 1 0 0 0 1.497-1.32l-.083-.094-.707-.707ZM15 5a1 1 0 0 0-.993.883L14 6v1a1 1 0 0 0 1.993.117L16 7V6a1 1 0 0 0-1-1Z"/></svg>
